src/assets/img/icons/duotone-icons/Communication/Outgoing-call.svg

<?xml version="1.0" encoding="UTF-8"?>
<svg width="24px" height="24px" viewBox="0 0 24 24" version="1.1" xmlns="http://www.w3.org/2000/svg" xmlns:xlink="http://www.w3.org/1999/xlink">
    <!-- Generator: Sketch 52.2 (67145) - http://www.bohemiancoding.com/sketch -->
    <title>Stockholm-icons / Communication / Outgoing-call</title>
    <desc>Created with Sketch.</desc>
    <g id="Stockholm-icons-/-Communication-/-Outgoing-call" stroke="none" stroke-width="1" fill="none" fill-rule="evenodd">
        <rect id="bound" x="0" y="0" width="24" height="24"></rect>
        <path d="M7.14296018,11.6653622 C7.06267828,11.7456441 6.95746388,11.7962128 6.84462255,11.8087507 C6.57016914,11.8392455 6.32295974,11.641478 6.29246492,11.3670246 L5.76926113,6.65819047 C5.76518362,6.62149288 5.76518362,6.58445654 5.76926113,6.54775895 C5.79975595,6.27330553 6.04696535,6.07553802 6.32141876,6.10603284 L11.0302529,6.62923663 C11.1430942,6.64177456 11.2483086,6.69234321 11.3285905,6.77262511 C11.5238526,6.96788726 11.5238526,7.28446974 11.3285905,7.47973189 L9.94288211,8.86544026 L11.4443443,10.3669024 C11.6396064,10.5621646 11.6396064,10.8787471 11.4443443,11.0740092 L10.7372375,11.781116 C10.5419754,11.9763782 10.2253929,11.9763782 10.0301307,11.781116 L8.52866855,10.2796538 L7.14296018,11.6653622 Z" id="Shape" fill="#335EEA" opacity="0.3"></path>
        <path d="M12.0799676,14.7839934 L14.2839934,12.5799676 C14.8927139,11.9712471 15.0436229,11.0413042 14.6586342,10.2713269 L14.5337539,10.0215663 C14.1487653,9.25158901 14.2996742,8.3216461 14.9083948,7.71292558 L17.6411989,4.98012149 C17.836461,4.78485934 18.1530435,4.78485934 18.3483056,4.98012149 C18.3863063,5.01812215 18.4179321,5.06200062 18.4419658,5.11006808 L19.5459415,7.31801948 C20.3904962,9.0071287 20.0594452,11.0471565 18.7240871,12.3825146 L12.7252616,18.3813401 C11.2717221,19.8348796 9.12170075,20.3424308 7.17157288,19.6923882 L4.75709327,18.8875616 C4.49512161,18.8002377 4.35354162,18.5170777 4.4408655,18.2551061 C4.46541191,18.1814669 4.50676633,18.114554 4.56165376,18.0596666 L7.21292558,15.4083948 C7.8216461,14.7996742 8.75158901,14.6487653 9.52156634,15.0337539 L9.77132688,15.1586342 C10.5413042,15.5436229 11.4712471,15.3927139 12.0799676,14.7839934 Z" id="Path-76" fill="#335EEA"></path>
    </g>
</svg>

<svg width="24" height="24" viewBox="0 0 24 24" xmlns="http://www.w3.org/2000/svg"><g fill="none" fill-rule="evenodd"><path d="M0 0h24v24H0z"/><path d="M7.143 11.665a.5.5 0 01-.85-.298l-.524-4.709a.5.5 0 01.552-.552l4.71.523a.5.5 0 01.298.85L9.943 8.866l1.501 1.502a.5.5 0 010 .707l-.707.707a.5.5 0 01-.707 0L8.53 10.28l-1.386 1.385z" fill="#335EEA" opacity=".3"/><path d="M12.08 14.784l2.204-2.204a2 2 0 00.375-2.309l-.125-.25a2 2 0 01.374-2.308l2.733-2.733a.5.5 0 01.801.13l1.104 2.208a4.387 4.387 0 01-.822 5.065l-5.999 5.998a5.427 5.427 0 01-5.553 1.311l-2.415-.804a.5.5 0 01-.195-.828l2.65-2.652a2 2 0 012.31-.374l.25.125a2 2 0 002.308-.375z" fill="#335EEA"/></g></svg>
